X:0255
T:Quick Step South Fencibles.
M:2/4
L:1/8
Q:1/4=88
I: :: ::
Z:Jack Campin * www.campin.me.uk * 2009
K:G
GG/G/ DG|BdBG        |AA/A/ DG      |FAFD |\
GG/G/ DG|Bdgd        |egfa          |g2g2:|
gg/a/ bg|fafd        |ee/f/ ge      |dgBG |\
cc/d/ ec|B/A/B/d/ g>e|d>e   d/c/B/A/|G2G2:|

